; generated by PrusaSlicer 2.5.2+win64 on 2023-05-26 at 07:00:04 UTC


;
;

;
;
; 

; external perimeters extrusion width = 0.45mm
; perimeters extrusion width = 0.45mm
; infill extrusion width = 0.45mm
; solid infill extrusion width = 0.45mm
; top infill extrusion width = 0.40mm
; support material extrusion width = 0.35mm
; first layer extrusion width = 0.42mm

; external perimeters extrusion width = 0.45mm
; perimeters extrusion width = 0.45mm
; infill extrusion width = 0.45mm
; solid infill extrusion width = 0.45mm
; top infill extrusion width = 0.40mm
; support material extrusion width = 0.35mm
; first layer extrusion width = 0.42mm

; external perimeters extrusion width = 0.45mm
; perimeters extrusion width = 0.45mm
; infill extrusion width = 0.45mm
; solid infill extrusion width = 0.45mm
; top infill extrusion width = 0.40mm
; support material extrusion width = 0.35mm
; first layer extrusion width = 0.42mm

; external perimeters extrusion width = 0.45mm
; perimeters extrusion width = 0.45mm
; infill extrusion width = 0.45mm
; solid infill extrusion width = 0.45mm
; top infill extrusion width = 0.40mm
; support material extrusion width = 0.35mm
; first layer extrusion width = 0.42mm

; external perimeters extrusion width = 0.45mm
; perimeters extrusion width = 0.45mm
; infill extrusion width = 0.45mm
; solid infill extrusion width = 0.45mm
; top infill extrusion width = 0.40mm
; support material extrusion width = 0.35mm
; first layer extrusion width = 0.42mm

; external perimeters extrusion width = 0.45mm
; perimeters extrusion width = 0.45mm
; infill extrusion width = 0.45mm
; solid infill extrusion width = 0.45mm
; top infill extrusion width = 0.40mm
; support material extrusion width = 0.35mm
; first layer extrusion width = 0.42mm

; external perimeters extrusion width = 0.45mm
; perimeters extrusion width = 0.45mm
; infill extrusion width = 0.45mm
; solid infill extrusion width = 0.45mm
; top infill extrusion width = 0.40mm
; support material extrusion width = 0.35mm
; first layer extrusion width = 0.42mm

; external perimeters extrusion width = 0.45mm
; perimeters extrusion width = 0.45mm
; infill extrusion width = 0.45mm
; solid infill extrusion width = 0.45mm
; top infill extrusion width = 0.40mm
; support material extrusion width = 0.35mm
; first layer extrusion width = 0.42mm

; external perimeters extrusion width = 0.45mm
; perimeters extrusion width = 0.45mm
; infill extrusion width = 0.45mm
; solid infill extrusion width = 0.45mm
; top infill extrusion width = 0.40mm
; support material extrusion width = 0.35mm
; first layer extrusion width = 0.42mm

; external perimeters extrusion width = 0.45mm
; perimeters extrusion width = 0.45mm
; infill extrusion width = 0.45mm
; solid infill extrusion width = 0.45mm
; top infill extrusion width = 0.40mm
; support material extrusion width = 0.35mm
; first layer extrusion width = 0.42mm

M73 P0 R8
M201 X2500 Y2500 Z400 E5000 ; sets maximum accelerations, mm/sec^2
M203 X180 Y180 Z12 E80 ; sets maximum feedrates, mm / sec
M204 P2000 R1250 T2500 ; sets acceleration (P, T) and retract acceleration (R), mm/sec^2
M205 X8.00 Y8.00 Z2.00 E10.00 ; sets the jerk limits, mm/sec
M205 S0 T0 ; sets the minimum extruding and travel feed rate, mm/sec
M107
;TYPE:Custom
M862.3 P "MINI" ; printer model check
G90 ; use absolute coordinates
M83 ; extruder relative mode
M104 S170 ; set extruder temp for bed leveling
M140 S60 ; set bed temp
M109 R170 ; wait for bed leveling temp
M190 S60 ; wait for bed temp
M204 T1250 ; set travel acceleration
G28 ; home all without mesh bed level
G29 ; mesh bed leveling 
M204 T2500 ; restore travel acceleration
M104 S215 ; set extruder temp
G92 E0
G1 Y-2 X179 F2400
G1 Z3 F720
M109 S215 ; wait for extruder temp

; intro line
M73 P0 R7
G1 X170 F1000
G1 Z0.2 F720
M73 P1 R7
G1 X110 E8 F900
G1 X40 E10 F700
G92 E0

M221 S95 ; set flow
G21 ; set units to millimeters
G90 ; use absolute coordinates
M83 ; use relative distances for extrusion
M900 K0.2 ; Filament gcode LA 1.5
; ; Filament gcode LA 1.0
M107
;LAYER_CHANGE
;Z:0.2
;HEIGHT:0.2
;BEFORE_LAYER_CHANGE
G92 E0.0
;0.2


G1 E-3.2 F4200
M73 P3 R7
G1 Z.2 F720
;AFTER_LAYER_CHANGE
;0.2
G1 Z.4
G1 X83.04 Y58.87 F9000
G1 Z.2 F720
G1 E3.2 F2400
M204 P600
;TYPE:Skirt/Brim
;WIDTH:0.42
G1 F1200
G1 X84.398 Y57.938 E.05165
G1 X87.125 Y57.266 E.08805
G1 X88.047 Y57.169 E.02908
G1 X98.92 Y57.194 E.34093
G1 X103.068 Y57.372 E.13018
G1 X104.647 Y58.067 E.05409
G1 X107.632 Y61.054 E.13239
G1 X108.327 Y62.734 E.05701
G1 X108.327 Y102.411 E1.24407
G1 X107.632 Y104.091 E.05701
M73 P4 R7
G1 X104.647 Y107.078 E.13239
G1 X103.068 Y107.773 E.05409
G1 X98.914 Y107.951 E.13039
G1 X87.955 Y107.951 E.34361
G1 X86.743 Y107.8 E.03829
G1 X84.306 Y107.182 E.07883
G1 X82.948 Y106.25 E.05165
G1 X80.774 Y103.173 E.11813
G1 X80.338 Y101.802 E.04511
G1 X80.43 Y63.312 E1.20681
G1 X80.866 Y61.947 E.04493
G1 X83.005 Y58.919 E.11625
M204 P1000
G1 E-2.24 F4200
;WIPE_START
G1 F7200
G1 X84.35 Y57.971 E-.912
;WIPE_END
G1 E-.048 F4200
G1 Z.4 F720
G1 X84.848 Y61.213 F9000
G1 Z.2 F720
G1 E3.2 F2400
M204 P600
G1 F1200
G1 X85.738 Y60.499 E.03576
G1 X86.137 Y60.307 E.0139
G1 X87.754 Y59.872 E.0525
G1 X90.101 Y59.846 E.07359
M73 P5 R7
G1 X90.783 Y59.92 E.02151
G1 X91.186 Y59.988 E.01281
G1 X92.317 Y60.024 E.03548
G1 X93.186 Y60.191 E.02775
G1 X94.43 Y60.798 E.04341
G1 X95.144 Y60.339 E.02662
G1 X96.839 Y59.891 E.05498
G1 X99.141 Y59.871 E.07218
G1 X99.825 Y59.945 E.02157
G1 X100.228 Y60.013 E.0128
G1 X101.353 Y60.048 E.03531
G1 X102.075 Y60.168 E.02293
G1 X103.618 Y60.894 E.05348
G1 X104.73 Y61.979 E.04872
G1 X105.286 Y62.955 E.03521
G1 X105.622 Y64.117 E.03792
G1 X105.636 Y68.076 E.12414
G1 X105.268 Y69.382 E.04253
G1 X104.871 Y70.072 E.02497
G1 X105.31 Y70.929 E.03019
G1 X105.656 Y72.289 E.04402
G1 X105.635 Y75.995 E.11619
G1 X105.268 Y77.298 E.04244
G1 X104.89 Y77.956 E.02378
G1 X105.295 Y78.752 E.02801
G1 X105.629 Y79.942 E.03875
G1 X105.657 Y83.7 E.11784
G1 X105.238 Y85.229 E.04971
G1 X104.785 Y85.985 E.02761
G1 X104.934 Y86.175 E.00758
G1 X105.31 Y86.924 E.02629
G1 X105.628 Y88.073 E.03738
G1 X105.657 Y91.827 E.11769
G1 X105.24 Y93.357 E.04974
G1 X104.476 Y94.573 E.04501
G1 X104.836 Y94.977 E.01698
G1 X105.294 Y95.829 E.03031
G1 X105.646 Y97.141 E.04259
G1 X105.656 Y100.777 E.11401
G1 X105.29 Y102.186 E.04566
G1 X104.518 Y103.435 E.04603
G1 X103.809 Y104.11 E.03068
G1 X103.013 Y104.616 E.02957
G1 X101.812 Y105.03 E.03984
G1 X100.241 Y105.129 E.04934
G1 X99.812 Y105.201 E.01366
G1 X99.014 Y105.281 E.02513
G1 X97.007 Y105.273 E.06294
G1 X95.354 Y104.89 E.05319
G1 X94.575 Y104.507 E.02722
G1 X94.344 Y104.335 E.00902
G1 X93.736 Y104.682 E.02196
G1 X92.521 Y105.059 E.03987
G1 X91.106 Y105.13 E.04443
G1 X90.677 Y105.201 E.01364
G1 X89.815 Y105.284 E.02716
G1 X87.684 Y105.249 E.06683
G1 X86.064 Y104.831 E.05243
G1 X85.306 Y104.42 E.02704
G1 X84.627 Y103.881 E.02719
G1 X83.694 Y102.636 E.04878
G1 X83.211 Y101.172 E.04832
G1 X83.151 Y99.447 E.05412
G1 X83.227 Y98.995 E.01438
G1 X83.149 Y98.51 E.0154
G1 X83.174 Y97.944 E.01778
G1 X83.16 Y97.203 E.02321
G1 X83.54 Y95.69 E.04892
G1 X84.369 Y94.391 E.04832
G1 X83.794 Y93.566 E.03153
G1 X83.29 Y91.782 E.05813
G1 X83.31 Y91.07 E.02233
M73 P6 R7
G1 X83.285 Y90.46 E.01916
G1 X83.361 Y89.995 E.01475
G1 X83.283 Y89.51 E.01541
G1 X83.308 Y88.946 E.01772
G1 X83.298 Y88.166 E.02444
G1 X83.62 Y86.816 E.04353
G1 X84.091 Y86.037 E.02853
G1 X83.727 Y85.498 E.02039
G1 X83.226 Y83.791 E.05577
G1 X83.236 Y83.001 E.02476
G1 X83.211 Y82.375 E.01965
G1 X83.287 Y81.911 E.01475
G1 X83.208 Y81.426 E.01541
G1 X83.235 Y80.849 E.01811
G1 X83.228 Y80.045 E.02519
G1 X83.579 Y78.654 E.04499
G1 X83.944 Y78.041 E.02237
G1 X83.777 Y77.776 E.00981
G1 X83.284 Y76.208 E.05154
G1 X83.245 Y74.602 E.05039
G1 X83.321 Y74.155 E.01421
G1 X83.243 Y73.67 E.01538
G1 X83.268 Y73.111 E.01755
G1 X83.238 Y72.534 E.01812
G1 X83.609 Y70.912 E.05218
G1 X84.062 Y70.164 E.02744
G1 X83.761 Y69.708 E.01711
G1 X83.278 Y68.139 E.05148
G1 X83.243 Y66.565 E.04936
G1 X83.319 Y66.115 E.01431
G1 X83.241 Y65.63 E.0154
G1 X83.267 Y65.041 E.0185
G1 X83.276 Y64.121 E.02884
G1 X83.663 Y62.74 E.04497
G1 X84.413 Y61.563 E.04375
G1 X84.802 Y61.251 E.01564
M204 P1000
G1 X85.032 Y61.541 F9000
M204 P600
G1 F1200
G1 X85.955 Y60.808 E.03694
G1 X86.251 Y60.666 E.01031
G1 X87.829 Y60.242 E.05121
G1 X90.071 Y60.222 E.07031
G1 X90.736 Y60.295 E.02099
G1 X91.149 Y60.364 E.01311
G1 X92.261 Y60.397 E.03487
G1 X93.089 Y60.557 E.02645
G1 X94.458 Y61.233 E.04789
G1 X95.272 Y60.695 E.03061
G1 X96.867 Y60.268 E.05176
G1 X99.111 Y60.247 E.07037
G1 X99.778 Y60.32 E.02104
G1 X100.19 Y60.389 E.0131
G1 X101.304 Y60.422 E.03493
G1 X101.986 Y60.536 E.02169
G1 X103.427 Y61.22 E.05
G1 X104.446 Y62.228 E.04493
G1 X104.946 Y63.119 E.03206
G1 X105.252 Y64.194 E.03505
G1 X105.258 Y68.049 E.12087
G1 X104.913 Y69.254 E.03929
G1 X104.406 Y70.117 E.03139
G1 X104.575 Y70.321 E.00829
G1 X104.951 Y71.045 E.02558
G1 X105.279 Y72.312 E.04104
G1 X105.258 Y75.967 E.11459
G1 X104.913 Y77.17 E.03926
G1 X104.423 Y78.005 E.03036
G1 X104.61 Y78.236 E.0093
G1 X104.938 Y78.874 E.02252
G1 X105.252 Y79.971 E.03576
G1 X105.279 Y83.676 E.11618
G1 X104.882 Y85.102 E.04639
G1 X104.316 Y86.026 E.03398
G1 X104.61 Y86.369 E.01417
G1 X104.953 Y87.045 E.02377
G1 X105.252 Y88.102 E.03443
G1 X105.28 Y91.803 E.11605
G1 X104.884 Y93.23 E.04643
G1 X104.29 Y94.174 E.03499
G1 X103.926 Y94.533 E.01603
G1 X104.516 Y95.178 E.02739
G1 X104.952 Y95.987 E.02883
G1 X105.275 Y97.213 E.03974
G1 X105.279 Y100.752 E.11097
G1 X104.933 Y102.062 E.04249
G1 X104.241 Y103.179 E.04117
M73 P7 R7
G1 X103.563 Y103.823 E.02934
G1 X102.831 Y104.285 E.02712
G1 X101.715 Y104.664 E.03696
G1 X100.199 Y104.754 E.04762
G1 X99.768 Y104.827 E.01371
G1 X98.987 Y104.905 E.02462
G1 X97.03 Y104.896 E.06134
G1 X95.462 Y104.528 E.05049
G1 X94.762 Y104.179 E.02454
G1 X94.376 Y103.88 E.01531
G1 X93.601 Y104.329 E.02808
G1 X92.478 Y104.684 E.03693
G1 X91.065 Y104.754 E.04436
G1 X90.634 Y104.827 E.01372
G1 X89.809 Y104.907 E.02598
G1 X87.755 Y104.878 E.06442
G1 X86.222 Y104.488 E.04958
G1 X85.527 Y104.114 E.02474
G1 X84.88 Y103.6 E.02591
G1 X84.042 Y102.488 E.04365
G1 X83.578 Y101.08 E.04648
G1 X83.529 Y99.456 E.05095
G1 X83.61 Y98.996 E.01465
G1 X83.526 Y98.506 E.01558
G1 X83.552 Y97.946 E.01758
G1 X83.533 Y97.269 E.02123
G1 X83.898 Y95.813 E.04708
G1 X84.676 Y94.613 E.04483
G1 X84.865 Y94.434 E.00818
G1 X84.146 Y93.43 E.03871
G1 X83.668 Y91.763 E.05437
G1 X83.687 Y91.068 E.02181
G1 X83.662 Y90.465 E.01891
G1 X83.744 Y89.996 E.01493
G1 X83.66 Y89.506 E.01558
G1 X83.685 Y88.95 E.01747
G1 X83.671 Y88.23 E.02258
G1 X83.98 Y86.934 E.04176
G1 X84.544 Y86.024 E.03358
G1 X84.079 Y85.359 E.02544
G1 X83.604 Y83.767 E.0521
G1 X83.614 Y82.996 E.02417
G1 X83.588 Y82.381 E.01931
G1 X83.669 Y81.911 E.01493
G1 X83.586 Y81.422 E.01558
G1 X83.612 Y80.856 E.01776
G1 X83.605 Y80.067 E.02473
G1 X83.937 Y78.777 E.04177
G1 X84.397 Y78.028 E.02755
G1 X84.127 Y77.632 E.01502
G1 X83.66 Y76.172 E.04806
G1 X83.623 Y74.612 E.04892
G1 X83.704 Y74.156 E.01453
G1 X83.62 Y73.666 E.01556
G1 X83.645 Y73.11 E.01746
G1 X83.616 Y72.542 E.01785
G1 X83.968 Y71.029 E.04869
G1 X84.516 Y70.153 E.03239
G1 X84.112 Y69.567 E.02231
G1 X83.654 Y68.104 E.04806
G1 X83.621 Y66.576 E.04791
G1 X83.701 Y66.116 E.01465
G1 X83.618 Y65.626 E.01558
G1 X83.644 Y65.049 E.01812
G1 X83.646 Y64.195 E.02676
G1 X83.996 Y62.918 E.04152
G1 X84.714 Y61.793 E.04184
G1 X84.985 Y61.578 E.01085
M204 P1000
G1 X85.212 Y61.868 F9000
M204 P600
G1 F1200
G1 X86.17 Y61.118 E.03813
G1 X86.365 Y61.026 E.00677
G1 X87.903 Y60.613 E.04993
G1 X90.041 Y60.598 E.06703
G1 X90.69 Y60.669 E.02048
G1 X91.112 Y60.741 E.01343
G1 X92.204 Y60.77 E.03427
G1 X92.992 Y60.922 E.02514
G1 X94.21 Y61.532 E.04273
G1 X94.419 Y61.717 E.00876
G1 X95.403 Y61.05 E.03725
G1 X96.895 Y60.644 E.04849
G1 X99.081 Y60.623 E.06856
G1 X99.732 Y60.694 E.02051
G1 X100.154 Y60.765 E.01341
G1 X101.255 Y60.796 E.03455
G1 X101.898 Y60.903 E.02043
G1 X103.233 Y61.546 E.04648
G1 X104.159 Y62.474 E.04111
G1 X104.605 Y63.281 E.02891
G1 X104.882 Y64.271 E.03221
G1 X104.881 Y68.022 E.11761
G1 X104.558 Y69.124 E.03601
G1 X104.091 Y69.908 E.02861
G1 X103.897 Y70.121 E.00902
M73 P8 R7
G1 X104.254 Y70.52 E.0168
G1 X104.592 Y71.163 E.02277
G1 X104.902 Y72.335 E.03802
G1 X104.882 Y75.938 E.11295
G1 X104.558 Y77.04 E.03602
G1 X104.09 Y77.825 E.02865
G1 X103.926 Y78.011 E.00778
G1 X104.286 Y78.43 E.01731
G1 X104.594 Y79.03 E.02114
G1 X104.882 Y80.049 E.0332
G1 X104.902 Y83.651 E.11295
G1 X104.527 Y84.972 E.04306
G1 X104.046 Y85.744 E.02851
G1 X103.79 Y86.006 E.01149
G1 X104.286 Y86.563 E.02335
G1 X104.608 Y87.199 E.02236
G1 X104.882 Y88.179 E.0319
G1 X104.903 Y91.779 E.11288
G1 X104.55 Y93.052 E.04143
G1 X103.984 Y93.952 E.03334
G1 X103.393 Y94.517 E.02561
G1 X104.196 Y95.378 E.03692
G1 X104.609 Y96.146 E.02732
G1 X104.904 Y97.284 E.03687
G1 X104.902 Y100.728 E.10798
G1 X104.596 Y101.889 E.03766
G1 X103.963 Y102.923 E.038
G1 X103.317 Y103.537 E.02794
G1 X102.651 Y103.953 E.02462
G1 X101.62 Y104.299 E.03409
G1 X100.158 Y104.379 E.04593
G1 X99.724 Y104.452 E.01379
G1 X98.959 Y104.528 E.0241
G1 X97.053 Y104.519 E.05975
G1 X95.611 Y104.181 E.04645
G1 X94.949 Y103.85 E.0232
G1 X94.35 Y103.377 E.02393
G1 X94.074 Y103.619 E.0115
G1 X93.465 Y103.977 E.02216
G1 X92.434 Y104.309 E.03396
G1 X91.024 Y104.379 E.04427
G1 X90.59 Y104.452 E.0138
G1 X89.803 Y104.529 E.02481
G1 X87.824 Y104.507 E.06203
G1 X86.379 Y104.144 E.04674
G1 X85.748 Y103.808 E.0224
G1 X85.134 Y103.32 E.02458
G1 X84.363 Y102.289 E.04037
G1 X83.946 Y100.992 E.04273
G1 X83.906 Y99.467 E.0478
G1 X83.993 Y98.997 E.01501
G1 X83.904 Y98.501 E.01578
G1 X83.929 Y97.946 E.01742
G1 X83.905 Y97.331 E.01929
G1 X84.232 Y95.991 E.04327
G1 X84.972 Y94.85 E.04263
G1 X85.444 Y94.47 E.01899
G1 X85.204 Y94.255 E.01008
G1 X84.499 Y93.291 E.03747
G1 X84.045 Y91.744 E.05055
G1 X84.065 Y91.065 E.02128
G1 X84.04 Y90.472 E.01863
G1 X84.127 Y89.997 E.01514
G1 X84.038 Y89.501 E.01578
G1 X84.063 Y88.952 E.01725
G1 X84.044 Y88.292 E.02069
G1 X84.339 Y87.053 E.03994
G1 X85.001 Y86.01 E.03873
G1 X84.43 Y85.217 E.03062
G1 X83.981 Y83.742 E.04836
G1 X83.991 Y82.991 E.02356
G1 X83.966 Y82.387 E.01895
G1 X84.053 Y81.912 E.01514
G1 X83.964 Y81.417 E.01578
G1 X83.989 Y80.86 E.01746
G1 X83.977 Y80.136 E.02273
G1 X84.294 Y78.9 E.03999
G1 X84.853 Y78.013 E.03287
G1 X84.475 Y77.485 E.02036
G1 X84.036 Y76.135 E.04452
G1 X84 Y74.624 E.0474
G1 X84.087 Y74.157 E.01489
G1 X83.998 Y73.662 E.01578
G1 X84.023 Y73.109 E.01734
G1 X83.994 Y72.55 E.01756
G1 X84.327 Y71.149 E.04515
G1 X84.972 Y70.141 E.0375
G1 X84.462 Y69.423 E.02764
G1 X84.031 Y68.068 E.04457
G1 X83.998 Y66.588 E.04642
G1 X84.085 Y66.117 E.01503
M73 P9 R7
G1 X83.996 Y65.621 E.01578
G1 X84.022 Y65.056 E.01776
G1 X84.017 Y64.269 E.02465
G1 X84.352 Y63.046 E.03976
G1 X85.012 Y62.025 E.03814
G1 X85.165 Y61.905 E.00608
M204 P1000
G1 X85.39 Y62.197 F9000
M204 P600
G1 F1200
G1 X86.382 Y61.431 E.0393
G1 X86.478 Y61.386 E.0033
G1 X87.977 Y60.983 E.04868
G1 X90.01 Y60.974 E.06374
G1 X90.643 Y61.043 E.01997
G1 X91.076 Y61.117 E.01375
G1 X92.149 Y61.143 E.03365
G1 X92.894 Y61.287 E.0238
G1 X94.008 Y61.852 E.03916
G1 X94.369 Y62.212 E.01601
G1 X95.535 Y61.404 E.04446
G1 X96.924 Y61.021 E.04518
G1 X99.052 Y60.999 E.06672
G1 X99.685 Y61.068 E.01998
G1 X100.117 Y61.142 E.01373
G1 X101.206 Y61.17 E.03417
G1 X101.808 Y61.27 E.01914
G1 X103.038 Y61.87 E.0429
G1 X103.871 Y62.718 E.03727
G1 X104.263 Y63.441 E.02579
G1 X104.512 Y64.346 E.02942
G1 X104.512 Y67.943 E.1128
G1 X104.222 Y68.952 E.03291
G1 X103.781 Y69.692 E.027
G1 X103.369 Y70.108 E.01835
G1 X103.932 Y70.719 E.02604
G1 X104.248 Y71.32 E.02129
G1 X104.525 Y72.359 E.03372
G1 X104.512 Y75.859 E.10974
G1 X104.222 Y76.868 E.03292
G1 X103.781 Y77.608 E.02701
G1 X103.403 Y77.992 E.01688
G1 X103.962 Y78.624 E.02644
G1 X104.249 Y79.185 E.01975
G1 X104.512 Y80.125 E.03062
G1 X104.525 Y83.626 E.10976
G1 X104.193 Y84.795 E.03811
G1 X103.739 Y85.523 E.02689
G1 X103.261 Y85.989 E.02092
G1 X103.961 Y86.757 E.03257
G1 X104.263 Y87.352 E.02092
G1 X104.511 Y88.254 E.02935
G1 X104.526 Y91.755 E.10975
